X: 60
T:Nancy Dawson. GS.60
M:6/8
L:1/8
Q:130
S:George Spencer m/s, Leeds,1831
R:Jig
O:England
A:Leeds
H:1831
Z:vmp.Cherri Graebe
K:G Major
G2GG2B | d2BG2B | A2BA2B | A2G (FED) | G2GG2B |! d2BG2B | A2GF
2E | D3"cr"D3 :
||: A2BA2B | 
A2G FED |! B2cd2e | d2e (dBG) | c2Bc2d | e2f (gfe) | dcB AGF | G3"cr"G3
:||
